X:66
T:GAYLYYT1- We're gayly yet (for 1st part)
S:from single sheet song with music, c 1745
Q:1/4=120
L:1/8
M:6/8
K:D mixolydian
G|G2d d c B|A2e e3/2 f/ g|G2B/ c/ d B d|G2dd2c/B/|\
c e cB2B|A B Af2e/ f/|g3/2 f/ e2 g G|G2dd2|]

